activity/activity-paint.svg

<?xml version="1.0" ?><!DOCTYPE svg  PUBLIC '-//W3C//DTD SVG 1.1//EN'  'http://www.w3.org/Graphics/SVG/1.1/DTD/svg11.dtd' [
	<!ENTITY stroke_color "#000">
	<!ENTITY fill_color "#eee">
]><svg height="55px" viewBox="0 0 55 55" width="55px" xmlns="http://www.w3.org/2000/svg" xmlns:xlink="http://www.w3.org/1999/xlink" stroke-linecap="round" stroke-linejoin="round" stroke-width="3.5" stroke="&stroke_color;" fill="&fill_color;">
 <g>
  <path d="M 49.139 40.188 C 48.022 31.762 40.451 22.513 27.144 17.812 C 19.719 15.189 10.363 16.52 6.641 24.386 C 2.619 32.88 10.02 43.082 20.336 42.997 C 27.202 42.941 34.08 45.588 38.191 48.162 C 42.897 51.115 50.104 47.47 49.139 40.188 Z M 42.398 40.273 C 41.818 41.95 39.99 42.846 38.302 42.271 C 36.625 41.695 35.728 39.863 36.304 38.181 C 36.881 36.5 38.71 35.604 40.393 36.179 C 42.073 36.755 42.972 38.59 42.398 40.273 Z " stroke="none" />
 </g>
 <g>
  <path d="M 31.9688 19.8438 C 30.4562 19.1051 28.8579 18.4137 27.1562 17.8125 C 24.8359 16.9928 22.3103 16.5624 19.8438 16.5938 C 14.4172 16.6627 9.21513 18.9671 6.65625 24.375 C 2.63425 32.869 10.0277 43.085 20.3438 43 C 27.2097 42.944 34.0765 45.5823 38.1875 48.1562 C 42.8935 51.1093 50.09 47.4695 49.125 40.1875 C 48.308 34.0248 44.0348 27.4106 36.5938 22.4688 M 39.125 36 C 39.5422 35.9706 39.9855 36.0438 40.4062 36.1875 C 42.0862 36.7635 42.9802 38.5983 42.4062 40.2812 C 41.8263 41.9583 40.0005 42.8563 38.3125 42.2812 C 36.6355 41.7052 35.7365 39.8695 36.3125 38.1875 C 36.7452 36.9267 37.8735 36.0882 39.125 36 Z " fill="none" />
 </g>
 <g>
  <path d="M 33.104 26.905 C 33.104 26.905 39.958 18.43 41.753 15.28 C 44.39 10.651 45.704 5.973 43.688 5.098 C 42.206 4.454 38.148 7.938 36.019 11.76 C 34.578 14.354 29.462 25.021 29.462 25.021 L 33.104 26.905 Z " />
  <path d="M 33.104 26.905 L 29.428 24.997 C 29.428 24.997 26.539 26.951 25.438 28.896 C 24.337 30.852 24.295 34.654 22.367 36.644 C 21.208 37.837 22.357 37.587 22.357 37.587 C 22.357 37.587 29.316 35.175 30.694 33.045 C 32.062 30.935 33.104 26.905 33.104 26.905 Z " />
 </g>
</svg>

<?xml version="1.0" ?><!DOCTYPE svg  PUBLIC '-//W3C//DTD SVG 1.1//EN'  'http://www.w3.org/Graphics/SVG/1.1/DTD/svg11.dtd' [
	<!ENTITY stroke_color "#010101">
	<!ENTITY fill_color "#FFFFFF">
]><svg enable-background="new 0 0 55 55" height="55px" version="1.1" viewBox="0 0 55 55" width="55px" x="0px" xml:space="preserve" xmlns="http://www.w3.org/2000/svg" xmlns:xlink="http://www.w3.org/1999/xlink" y="0px"><g display="block" id="activity-paint">
	<g display="inline">
		<g>
			<g>
				<path d="M49.139,40.188c-1.117-8.426-8.688-17.675-21.995-22.376c-7.425-2.623-16.781-1.292-20.503,6.574      C2.619,32.88,10.02,43.082,20.336,42.997c6.866-0.056,13.744,2.591,17.855,5.165C42.897,51.115,50.104,47.47,49.139,40.188z       M42.398,40.273c-0.58,1.677-2.408,2.573-4.096,1.998c-1.677-0.576-2.574-2.408-1.998-4.09c0.577-1.681,2.406-2.577,4.089-2.002      C42.073,36.755,42.972,38.59,42.398,40.273z" fill="&fill_color;"/>
			</g>
			<g>
				<path d="M49.139,40.188c-1.117-8.426-8.688-17.675-21.995-22.376      c-7.425-2.623-16.781-1.292-20.503,6.574C2.619,32.88,10.02,43.082,20.336,42.997c6.866-0.056,13.744,2.591,17.855,5.165      C42.897,51.115,50.104,47.47,49.139,40.188z M42.398,40.273c-0.58,1.677-2.408,2.573-4.096,1.998      c-1.677-0.576-2.574-2.408-1.998-4.09c0.577-1.681,2.406-2.577,4.089-2.002C42.073,36.755,42.972,38.59,42.398,40.273z" fill="none" stroke="&stroke_color;" stroke-width="3.5"/>
			</g>
		</g>
		<g>
			<path d="M33.104,26.905c0,0,6.854-8.475,8.649-11.625     c2.637-4.629,3.951-9.307,1.935-10.182c-1.482-0.644-5.54,2.84-7.669,6.662c-1.441,2.594-6.557,13.261-6.557,13.261     L33.104,26.905z" fill="&fill_color;" stroke="&stroke_color;" stroke-width="3.5"/>
			<path d="M33.104,26.905l-3.676-1.908c0,0-2.889,1.954-3.99,3.899     c-1.101,1.956-1.143,5.758-3.071,7.748c-1.159,1.193-0.01,0.943-0.01,0.943s6.959-2.412,8.337-4.542     C32.062,30.935,33.104,26.905,33.104,26.905z" fill="&fill_color;" stroke="&stroke_color;" stroke-width="3.5"/>
		</g>
	</g>
</g></svg>
